X: 30327
T: Old Micky McKiernan's
R: reel
M: 4/4
K: Dmajor
D2 ED FAAB|d2 fd BAFA|B2 BA FAdB|AFDF EB, B,2|
D2 ED FAAB|d2 fd BAFA|B2 BA FAdB|1 AFEG FD D2:|2 AFEG FDDA||
|:defg afdf|afdf eBBA|defg afdf|abaf e2 dB|
defg afdf|afdf eBBA|B2 BA FAdB|1 AFEG FDDA:|2 AFEG FDB,C||

